src/assets/img/sections/section-tokens.svg

<svg width="578" height="145" viewBox="0 0 578 145" fill="none" xmlns="http://www.w3.org/2000/svg">
<path d="M288 145V1.52588e-05L359.84 1.52588e-05C400.245 1.52588e-05 433 32.4594 433 72.5C433 112.541 400.245 145 359.84 145L288 145Z" fill="#286AD8"/>
<path d="M105.125 145H0C0 64.9187 64.9187 0 145 0V105.125C145 127.147 127.147 145 105.125 145Z" fill="#286AD8"/>
<path d="M216.5 144.188C256.54 144.188 289 111.911 289 72.0943C289 32.2778 256.54 0 216.5 0C176.459 0 144 32.2777 144 72.0943C144 111.911 176.459 144.188 216.5 144.188Z" fill="#286AD8"/>
<path d="M432.189 105.125V0C512.271 0 577.189 64.9187 577.189 145H472.064C450.042 145 432.189 127.147 432.189 105.125Z" fill="#286AD8"/>
<path fill-rule="evenodd" clip-rule="evenodd" d="M216.5 32L250 52.2522V92.7389L216.5 113L183 92.7389V52.2522L216.5 32ZM191.451 57.3573V87.6427L216.5 102.781L241.549 87.6427V57.3484L216.5 42.219L191.451 57.3573Z" fill="#5287DF"/>
<path d="M224.951 72.4956C224.951 77.3883 221.165 81.3432 216.5 81.3432C211.835 81.3432 208.049 77.3883 208.049 72.4956C208.049 67.6117 211.835 63.648 216.5 63.648C221.165 63.648 224.951 67.6117 224.951 72.4956Z" fill="#5287DF"/>
</svg>

<svg xmlns="http://www.w3.org/2000/svg" width="578" height="145" fill="none" viewBox="0 0 578 145"><path fill="#286ad8" d="M288 145V0h71.84C400.245 0 433 32.46 433 72.5S400.245 145 359.84 145zM105.125 145H0C0 64.919 64.919 0 145 0v105.125C145 127.147 127.147 145 105.125 145"/><path fill="#286ad8" d="M216.5 144.188c40.04 0 72.5-32.277 72.5-72.094S256.54 0 216.5 0 144 32.278 144 72.094c0 39.817 32.459 72.094 72.5 72.094M432.189 105.125V0c80.082 0 145 64.919 145 145H472.064c-22.022 0-39.875-17.853-39.875-39.875"/><path fill="#5287df" fill-rule="evenodd" d="M216.5 32 250 52.252V92.74L216.5 113 183 92.739V52.252zm-25.049 25.357v30.286L216.5 102.78l25.049-15.138V57.348L216.5 42.22z" clip-rule="evenodd"/><path fill="#5287df" d="M224.951 72.496c0 4.892-3.786 8.847-8.451 8.847s-8.451-3.955-8.451-8.847c0-4.884 3.786-8.848 8.451-8.848s8.451 3.964 8.451 8.848"/></svg>
